X: 1
T: Caravan
M: 4/4
L: 1/4
C: Duke Ellington (1936)
R: Uptempo
K: Bb
P:A
|: "G7" g4-|g4| z _a gd |fg (3b/2=b/2-b/2 d | f4-|f4|
z g_ag|_ag ^f2/3=f/8e/8 d| f4-|f4| zg ^f=f|=e_ed=B| "Cm7" c4 | z4| z4 | z4 :|
P:B
|"C7" c'4 | a2 g2 | d4- | d2 c2 | "F7"  g4 | d2 c2 | G4- | G4 | "Bb7" b4 | g2 f2 | B4- |
B2 A B | "Eb" e4 - | e2 f e | "G7" d4- | d4||